image/form.svg

<svg width="75" height="74" viewBox="0 0 75 74" fill="none" xmlns="http://www.w3.org/2000/svg">
<path d="M48.5919 52.4954C50.1938 52.175 51.7957 52.175 53.3976 52.4954C54.9995 52.8158 56.6014 52.8158 58.2033 52.4954C59.8052 52.175 61.4072 52.175 63.0091 52.4954C64.611 52.8158 66.2129 52.8158 67.8149 52.4954M45.3886 36.4762L53.3983 4.43773C53.7186 3.15621 53.1562 2.78194 52.5973 2.20792M45.3886 36.4762L38.9809 34.8742M45.3886 36.4762L38.9809 60.505C37.6993 65.3108 31.2916 63.7088 32.5732 58.9031L38.9809 34.8742M38.9809 34.8742L46.9905 2.8358C47.6313 0.27275 51.1435 0.71481 52.5973 2.20792M52.5973 2.20792C55.0002 1.55429 57.5633 2.83583 56.9225 5.07852L50.1944 30.0685M54.9996 23.6608H74.2226V73H10.1457C4.13898 73 0.947682 68.4954 1.00065 63.7089M1.00065 63.7089C1.06069 58.2832 5.28917 52.4954 14.3107 52.4954L14.3107 3.15621C5.33989 3.15621 1.00065 6.03967 1.00065 14.6037V63.7089ZM38.9803 23.6608H16.8737M48.5918 47.6896C50.1937 47.3693 51.7956 47.3693 53.3975 47.6896C54.9995 48.01 56.6014 48.01 58.2033 47.6896C59.8052 47.3693 61.4072 47.3693 63.0091 47.6896C64.611 48.01 66.2129 48.01 67.8148 47.6896M48.5918 42.9159C50.1937 42.5955 51.7956 42.5955 53.3975 42.9159C54.9995 43.2363 56.6014 43.2363 58.2033 42.9159C59.8052 42.5955 61.4072 42.5955 63.0091 42.9159C64.611 43.2363 66.2129 43.2363 67.8148 42.9159M39.3013 36.4762L40.5828 36.7966L35.4567 56.6604C35.2965 57.3012 34.015 56.9808 34.1751 56.34L39.3013 36.4762ZM40.2624 33.5927L41.5439 33.9131L49.073 4.75813C49.2332 4.11736 47.9516 3.79698 47.7915 4.43773L40.2624 33.5927ZM33.0533 65.6312C33.3737 64.9904 34.495 65.471 34.3348 65.9515L33.5338 68.6748C33.2135 69.3156 32.0921 68.835 32.2523 68.3544L33.0533 65.6312Z" stroke="#E4C4CF"/>
</svg>

<svg xmlns="http://www.w3.org/2000/svg" width="72.973" height="72" fill="none" viewBox="0 0 75 74">
  <path stroke="url(#a)" d="M48.592 52.495a12.15 12.15 0 0 1 4.806 0c1.601.32 3.203.32 4.805 0a12.15 12.15 0 0 1 4.806 0c1.602.32 3.204.32 4.806 0M45.389 36.476l8.01-32.038c.32-1.282-.243-1.656-.802-2.23M45.39 36.476l-6.408-1.602m6.408 1.602-6.41 24.029c-1.282 4.806-7.69 3.204-6.408-1.602l6.408-24.029m0 0 8.01-32.038c.64-2.563 4.153-2.121 5.606-.628m0 0c2.403-.654 4.966.628 4.325 2.87l-6.728 24.99M55 23.662h19.223V73H10.146C4.139 73 .948 68.495 1 63.709m0 0c.06-5.426 4.288-11.214 13.31-11.214V3.156C5.34 3.156 1 6.04 1 14.604v49.105ZM38.98 23.66H16.873m31.719 24.03a12.15 12.15 0 0 1 4.806 0c1.601.32 3.203.32 4.805 0a12.15 12.15 0 0 1 4.806 0c1.602.32 3.204.32 4.806 0m-19.223-4.774a12.15 12.15 0 0 1 4.806 0c1.601.32 3.203.32 4.805 0a12.15 12.15 0 0 1 4.806 0c1.602.32 3.204.32 4.806 0M39.3 36.476l1.282.32-5.126 19.864c-.16.641-1.442.32-1.282-.32L39.3 36.476Zm.961-2.883 1.282.32 7.529-29.155c.16-.64-1.121-.961-1.282-.32l-7.529 29.155ZM33.053 65.63c.32-.64 1.442-.16 1.282.32l-.801 2.724c-.32.64-1.442.16-1.282-.32l.801-2.724Z"/>
  <defs>
    <radialGradient id="a" cx="0" cy="0" r="1" gradientTransform="matrix(0 36 -36.6113 0 37.611 37)" gradientUnits="userSpaceOnUse">
      <stop offset=".497" stop-color="#fff"/>
      <stop offset="1" stop-color="#E4C4CF"/>
    </radialGradient>
  </defs>
</svg>
